public/asset/weather_icon/smoke.svg

<?xml version="1.0" encoding="utf-8"?>
<!-- Generator: Adobe Illustrator 22.0.1, SVG Export Plug-In . SVG Version: 6.00 Build 0)  -->
<svg version="1.1" id="Layer_1" xmlns="http://www.w3.org/2000/svg" xmlns:xlink="http://www.w3.org/1999/xlink" x="0px" y="0px"
	 viewBox="0 0 30 30" style="enable-background:new 0 0 30 30;" xml:space="preserve">
<path d="M6.34,12.48c0-0.94,0.3-1.78,0.89-2.52s1.34-1.21,2.25-1.41C9.73,7.43,10.3,6.5,11.2,5.78s1.92-1.08,3.08-1.08
	c1.12,0,2.13,0.35,3.02,1.05c0.89,0.7,1.46,1.6,1.73,2.69h0.27c1.12,0,2.08,0.39,2.88,1.18c0.79,0.78,1.19,1.74,1.19,2.85
	c0,0.6-0.12,1.17-0.37,1.7c-0.25,0.53-0.59,0.99-1.03,1.37v0.03c0,0.59-0.19,1.12-0.56,1.59c-0.37,0.47-0.84,0.76-1.4,0.89
	c-0.14,0.62-0.45,1.15-0.91,1.58c-0.46,0.43-1.01,0.7-1.63,0.8c0.29,0.34,0.43,0.72,0.43,1.13c0,0.48-0.17,0.89-0.51,1.24
	c-0.34,0.34-0.75,0.52-1.23,0.52c-0.48,0-0.89-0.17-1.23-0.52c-0.34-0.34-0.51-0.76-0.51-1.24c0-0.19,0.03-0.38,0.1-0.57h-0.1
	c-0.58,0-1.08-0.21-1.5-0.63c-0.42-0.42-0.63-0.92-0.63-1.5c0-0.4,0.1-0.76,0.3-1.07c-0.52-0.29-0.89-0.7-1.12-1.25h-1.28v-0.01
	c-1.07-0.07-1.98-0.49-2.73-1.27S6.34,13.56,6.34,12.48z M7.74,12.23c0,0.8,0.28,1.48,0.84,2.04s1.24,0.84,2.03,0.84
	c0.49,0,0.95-0.11,1.37-0.34c0.12,0.74,0.47,1.36,1.04,1.86s1.25,0.74,2.02,0.74c0.87,0,1.61-0.31,2.22-0.92
	c0.41,0.48,0.92,0.71,1.54,0.71c0.57,0,1.05-0.2,1.46-0.6c0.4-0.4,0.6-0.89,0.6-1.46c0.4-0.27,0.72-0.61,0.95-1.04
	c0.23-0.42,0.35-0.88,0.35-1.37c0-0.79-0.28-1.47-0.85-2.02c-0.57-0.55-1.25-0.83-2.05-0.83c-0.56,0-1.07,0.15-1.53,0.44
	c0.06-0.24,0.08-0.51,0.08-0.79c0-0.96-0.34-1.78-1.03-2.46c-0.69-0.68-1.52-1.01-2.49-1.01c-0.94,0-1.75,0.33-2.43,0.97
	s-1.04,1.44-1.07,2.37c-0.02,0-0.05,0-0.08,0c-0.04,0-0.07,0-0.09,0c-0.79,0-1.46,0.28-2.03,0.84S7.74,11.45,7.74,12.23z"/>
</svg>

<svg width="30" height="30" viewBox="0 0 30 30" fill="none" xmlns="http://www.w3.org/2000/svg">
<path d="M6.33997 12.48C6.33997 11.54 6.63997 10.7 7.22997 9.96C7.81997 9.22 8.56997 8.75 9.47997 8.55C9.72997 7.43 10.3 6.5 11.2 5.78C12.1 5.06 13.12 4.7 14.28 4.7C15.4 4.7 16.41 5.05 17.3 5.75C18.19 6.45 18.76 7.35 19.03 8.44H19.3C20.42 8.44 21.38 8.83 22.18 9.62C22.97 10.4 23.37 11.36 23.37 12.47C23.37 13.07 23.25 13.64 23 14.17C22.75 14.7 22.41 15.16 21.97 15.54V15.57C21.97 16.16 21.78 16.69 21.41 17.16C21.04 17.63 20.57 17.92 20.01 18.05C19.87 18.67 19.56 19.2 19.1 19.63C18.64 20.06 18.09 20.33 17.47 20.43C17.76 20.77 17.9 21.15 17.9 21.56C17.9 22.04 17.73 22.45 17.39 22.8C17.05 23.14 16.64 23.32 16.16 23.32C15.68 23.32 15.27 23.15 14.93 22.8C14.59 22.46 14.42 22.04 14.42 21.56C14.42 21.37 14.45 21.18 14.52 20.99H14.42C13.84 20.99 13.34 20.78 12.92 20.36C12.5 19.94 12.29 19.44 12.29 18.86C12.29 18.46 12.39 18.1 12.59 17.79C12.07 17.5 11.7 17.09 11.47 16.54H10.19V16.53C9.11997 16.46 8.20997 16.04 7.45997 15.26C6.70997 14.48 6.33997 13.56 6.33997 12.48ZM7.73997 12.23C7.73997 13.03 8.01997 13.71 8.57997 14.27C9.13997 14.83 9.81997 15.11 10.61 15.11C11.1 15.11 11.56 15 11.98 14.77C12.1 15.51 12.45 16.13 13.02 16.63C13.59 17.13 14.27 17.37 15.04 17.37C15.91 17.37 16.65 17.06 17.26 16.45C17.67 16.93 18.18 17.16 18.8 17.16C19.37 17.16 19.85 16.96 20.26 16.56C20.66 16.16 20.86 15.67 20.86 15.1C21.26 14.83 21.58 14.49 21.81 14.06C22.04 13.64 22.16 13.18 22.16 12.69C22.16 11.9 21.88 11.22 21.31 10.67C20.74 10.12 20.06 9.84 19.26 9.84C18.7 9.84 18.19 9.99 17.73 10.28C17.79 10.04 17.81 9.77 17.81 9.49C17.81 8.53 17.47 7.71 16.78 7.03C16.09 6.35 15.26 6.02 14.29 6.02C13.35 6.02 12.54 6.35 11.86 6.99C11.18 7.63 10.82 8.43 10.79 9.36C10.77 9.36 10.74 9.36 10.71 9.36C10.67 9.36 10.64 9.36 10.62 9.36C9.82997 9.36 9.15997 9.64 8.58997 10.2C8.01997 10.76 7.73997 11.45 7.73997 12.23Z" fill="white"/>
</svg>
